X:203
T: Kreuzesliebe (3-7), S. 29
N: P0978
O: Lothringen
S: PINCK, Louis: Verklingende Weisen, Bd3, Metz 1933]
R: yyy]
M: 3/4
L: 1/8
K: G
B2 | d2B2d2 | c2A2
c2 | B2G2B2 | A4
D2 | G2G2A2 | B2B2
c2 | d2BGAF | G4

@@@ Tune index: 7753
